src/_public/img/theme-light.svg

<svg width="48" height="48" viewBox="0 0 48 48" fill="none" xmlns="http://www.w3.org/2000/svg">
<g clip-path="url(#clip0_9_36)">
<rect x="8" y="8" width="32" height="32" rx="16" fill="white"/>
<path fill-rule="evenodd" clip-rule="evenodd" d="M32.5796 16.8347C32.9701 16.4442 32.9701 15.811 32.5796 15.4205C32.189 15.03 31.5559 15.03 31.1654 15.4205L30.1283 16.4576C29.7377 16.8481 29.7377 17.4813 30.1283 17.8718C30.5188 18.2623 31.152 18.2623 31.5425 17.8718L32.5796 16.8347ZM17.8717 31.5425C18.2623 31.152 18.2623 30.5188 17.8718 30.1283C17.4812 29.7378 16.8481 29.7378 16.4575 30.1283L15.4204 31.1654C15.0299 31.5559 15.0299 32.1891 15.4204 32.5796C15.811 32.9701 16.4441 32.9701 16.8347 32.5796L17.8717 31.5425ZM23 35.1333C23 35.6856 23.4477 36.1333 24 36.1333C24.5523 36.1333 25 35.6856 25 35.1333L25 33.6667C25 33.1144 24.5523 32.6667 24 32.6667C23.4477 32.6667 23 33.1144 23 33.6667L23 35.1333ZM23 14.3333C23 14.8856 23.4477 15.3333 24 15.3333C24.5523 15.3333 25 14.8856 25 14.3333V12.8667C25 12.3144 24.5523 11.8667 24 11.8667C23.4477 11.8667 23 12.3144 23 12.8667V14.3333ZM36.1333 24C36.1333 24.5523 35.6856 25 35.1333 25L33.6667 25C33.1144 25 32.6667 24.5523 32.6667 24C32.6667 23.4477 33.1144 23 33.6667 23L35.1333 23C35.6856 23 36.1333 23.4477 36.1333 24ZM15.3333 24C15.3333 24.5523 14.8856 25 14.3333 25H12.8667C12.3144 25 11.8667 24.5523 11.8667 24C11.8667 23.4477 12.3144 23 12.8667 23H14.3333C14.8856 23 15.3333 23.4477 15.3333 24ZM31.1654 32.5797C31.5559 32.9702 32.189 32.9702 32.5796 32.5797C32.9701 32.1891 32.9701 31.556 32.5796 31.1654L31.5425 30.1284C31.152 29.7378 30.5188 29.7378 30.1283 30.1284C29.7377 30.5189 29.7377 31.152 30.1283 31.5426L31.1654 32.5797ZM16.4575 17.8718C16.8481 18.2624 17.4812 18.2624 17.8717 17.8718C18.2623 17.4813 18.2623 16.8481 17.8717 16.4576L16.8347 15.4205C16.4441 15.03 15.811 15.03 15.4204 15.4205C15.0299 15.8111 15.0299 16.4442 15.4204 16.8347L16.4575 17.8718Z" fill="#1B1B1B"/>
<circle cx="24" cy="24" r="5" fill="#1B1B1B"/>
<circle cx="47" cy="5" r="12" fill="white"/>
</g>
<defs>
<clipPath id="clip0_9_36">
<rect x="8" y="8" width="32" height="32" rx="16" fill="white"/>
</clipPath>
</defs>
</svg>

<svg width="48" height="48" viewBox="0 0 48 48" fill="none" role="img" xmlns="http://www.w3.org/2000/svg">
  <g clip-path="url(#a)">
    <rect x="8" y="8" width="32" height="32" rx="16" fill="#fff"/>
    <path fill-rule="evenodd" clip-rule="evenodd" d="M32.58 16.835a1 1 0 0 0-1.415-1.415l-1.037 1.038a1 1 0 1 0 1.415 1.414l1.037-1.037ZM17.872 31.542a1 1 0 1 0-1.415-1.414l-1.037 1.037a1 1 0 0 0 1.415 1.415l1.037-1.037ZM23 35.133a1 1 0 1 0 2 0v-1.466a1 1 0 1 0-2 0v1.466Zm0-20.8a1 1 0 1 0 2 0v-1.466a1 1 0 1 0-2 0v1.466ZM36.133 24a1 1 0 0 1-1 1h-1.466a1 1 0 1 1 0-2h1.466a1 1 0 0 1 1 1Zm-20.8 0a1 1 0 0 1-1 1h-1.466a1 1 0 1 1 0-2h1.466a1 1 0 0 1 1 1Zm15.832 8.58a1 1 0 0 0 1.415-1.415l-1.037-1.037a1 1 0 1 0-1.415 1.415l1.037 1.037ZM16.458 17.872a1 1 0 1 0 1.414-1.414l-1.037-1.037a1 1 0 0 0-1.415 1.414l1.037 1.037Z" fill="#1B1B1B"/>
    <circle cx="24" cy="24" r="5" fill="#1B1B1B"/>
    <circle cx="47" cy="5" r="12" fill="#fff"/>
  </g>
  <defs>
    <clipPath id="a">
      <rect x="8" y="8" width="32" height="32" rx="16" fill="#fff"/>
    </clipPath>
  </defs>
</svg>
